archdroid-icon-theme/Archdroid-LightBlue/apps/scalable/gnome-sound-recorder.svg

<svg fill="#03A9F4" height="48" viewBox="0 0 48 48" width="48" xmlns="http://www.w3.org/2000/svg"><path d="m24 29c3.31 0 5.98-2.69 5.98-6l.02-12c0-3.32-2.68-6-6-6-3.31 0-6 2.68-6 6v12c0 3.31 2.69 6 6 6zm10.6-6c0 6-5.07 10.2-10.6 10.2-5.52 0-10.6-4.2-10.6-10.2h-3.4c0 6.83 5.44 12.47 12 13.44v6.56h4v-6.56c6.56-.97 12-6.61 12-13.44z" fill="#03A9F4"/></svg>

<svg fill="#03A9F4" height="48" version="1.1" viewBox="0 0 48 48" width="48" xmlns="http://www.w3.org/2000/svg"><path d="m24 29c3.31 0 5.98-2.69 5.98-6L30 11C30 7.68 27.32 5 24 5 20.69 5 18 7.68 18 11l0 12c0 3.31 2.69 6 6 6zM34.6 23C34.6 29 29.53 33.2 24 33.2 18.48 33.2 13.4 29 13.4 23L10 23c0 6.83 5.44 12.47 12 13.44L22 43l4 0 0-6.56C32.56 35.47 38 29.83 38 23l-3.4 0z"/></svg>
